X: 71
T: Msza Święta - Sanctus
C: Józef Stefani
%%abc-version 2.0
%%abcx-abcm2ps-target-version 5.9.1 (29 Sep 2008)
%%abc-creator hum2abc beta
%%abcx-conversion-date 2021/10/04 07:38:39
%%abc-edited-by Marcin Jachim
%%abc-edited-by Kamil Watkowski
%%abcx-initial-encoding-date 2021-08-12
%%humdrum-veritas 949652957
%%humdrum-veritas-data 3106488826
%%linebreak <none>
%%barnumbers 0
L: 1/4
M: C
N: Derived from pl-kozmzk--mzk-m-26--006_stefani-jozef-msza-swieta-sanctus.krn
Q: "Adagio."
V: 1 clef=tenor
V: 2 clef=tenor
V: 3 clef=bass
V: 4 clef=treble
V: 5 clef=bass
K: Bb
[V:1] z2z ]|:  
[V:2] z2z ]|:  
[V:3] z2z ]|:  
[V:4] z[AF][G=E] ]|:  
[V:5] z[F,3F,,3] ]|:  
[V:1] C [I:setbarnb 2]| 
[V:2] A, | 
[V:3] F, | 
[V:4] [cA_E] | 
[V:5]  | 
[V:1] D>DDD | 
[V:2] B,>F,F,F, | 
[V:3] B,,>B,,B,,B,, | 
[V:4] [dBD]>[dBF][d2B2F2] | 
[V:5] [F,B,,]>[F,B,,][F,2B,,2] | 
[V:1] F2Cz | 
[V:2] F,2F,z | 
[V:3] A,,2A,,z | 
[V:4] [f2c2F2-][c2F2] | 
[V:5] [F,4A,,4] | 
[V:1] D>DD=E | 
[V:2] B,>B,B,B, | 
[V:3] G,,>G,,G,_G, | 
[V:4] [d3B3G3][=ecB] | 
[V:5] [G,3G,,3][_G,_G,,] | 
[V:1] F2!fermata!FF | 
[V:2] B,A,/G,/!fermata!A,A, | 
[V:3] F,2!fermata!F,F, | 
[V:4] [f2c2]-[fc][fA] & BA/G/AA | 
[V:5] [F,2F,,2]-[F,F,,][F,F,,] | 
[V:1] G>GGE | 
[V:2] B,>B,B,C | 
[V:3] E,>E,E,C, | 
[V:4] [g3B3][ec] | 
[V:5] [E,3E,,3][C,C,,] | 
[V:1] C>^CDF | 
[V:2] A,2B,_A, | 
[V:3] F,2B,,B,,- | 
[V:4] c>^cdf & A2B_A | 
[V:5] [F,2-F,,2]F,[B,B,,] & x2B,,x | 
[V:1] FEDE/ C/ | 
[V:2] G,G,^F,G,/ G,/ | 
[V:3] B,,B,,B,,3/E,/ | 
[V:4] fede/c/ & G2^FG | 
[V:5] [B,3B,,3]-[B,/B,,/]E,/ | 
[V:1] D2CF | 
[V:2] B,3A, | 
[V:3] F,4 | 
[V:4] [d2B2]cf & F4 | 
[V:5] F,2-[F,2F,,2] | 
[V:1] D2zD | 
[V:2] B,2zD | 
[V:3] B,,2zD, | 
[V:4] [d2B2]z[dD]- & F2xD | 
[V:5] [F,2B,,2]zD, | 
[V:1] D>DDD | 
[V:2] D>DDD | 
[V:3] D,>D,D,D, | 
[V:4] [dD]>[dD][d2D2] | 
[V:5] D,>D,D,2 | 
[V:1] F2Dz | 
[V:2] F2Dz | 
[V:3] F,2D,z | 
[V:4] [f2F2][dD]z | 
[V:5] F,2D,z | 
[V:1] B,>B,B,D | 
[V:2] F,>F,F,F, | 
[V:3] D,>D,D,A,, | 
[V:4] [B3F3B,3][cFC] | 
[V:5] [F,3D,3][F,C,A,,] | 
[V:1] D2DD | 
[V:2] F,2F,_A, | 
[V:3] B,,2B,,B,, | 
[V:4] [d3B3F3D3][d_A] & x2xF | 
[V:5] [F,3B,,3][B,B,,] | 
[V:1] FE/ D/ED | 
[V:2] G,>^F,G,=F, | 
[V:3] B,,>B,,B,,B,, | 
[V:4] fe/d/ed & G>^GG=F | 
[V:5] [B,4B,,4] | 
[V:1] C/D//C// B,/C/Dz | 
[V:2] G,2^F,z | 
[V:3] E,2D,z | 
[V:4] c/d//c// B/c/dz & G2^Fx | 
[V:5] [C2G,2E,2][DA,D,]z | 
[V:1] E2C2 | 
[V:2] G,2G,2 | 
[V:3] C,2E,2 | 
[V:4] [e2G2E2][c2G2] | 
[V:5] [C2G,2E,2C,2][C2G,2E,2] | 
[V:1] D2D2 | 
[V:2] B,2B,2 | 
[V:3] F,^F,G,=F, | 
[V:4] [d4B4] & F^FG=F | 
[V:5] [D4B,4] & F,^F,G,=F, | 
[V:1] C2DC3//D// | 
[V:2] B,3A,3//B,// | 
[V:3] E,/C,/D,/E,/F,F,3//B,,// | 
[V:4] x2[dB][c3//A3//][d//B//] & [c3B3G3]F | 
[V:5] [C3B,3][C3//A,3//][D//B,//] & E,/C,/D,/E,/[DB,]F,3//B,,// | 
[V:1] Dzz2 | 
[V:2] B,zz2 | 
[V:3] B,,zz2 | 
[V:4] [dB][bd][ge][afec] & Fxx2 | 
[V:5] [DB,][B,3B,,3]- | 
[V:1] z4 | 
[V:2] z4 | 
[V:3] z4 | 
[V:4] [b2f2d2][ge][afec] | 
[V:5] [B,4B,,4]- | 
[V:1] x4 | 
[V:2] x4 | 
[V:3] x4 | 
[V:4] [bfd][af][ge][fd] | 
[V:5] [B,4B,,4] | 
[V:1] x4 | 
[V:2] x4 | 
[V:3] x4 | 
[V:4] e3[fA] & c3x | 
[V:5] {/[E,B,,]}B,A,/G,/A,F, | 
[V:1] x4 | 
[V:2] x4 | 
[V:3] x4 | 
[V:4] [d4B4] | 
[V:5] B,D,G,F, | 
[V:1] x4 |[1 
[V:2] x4 | 
[V:3] x4 | 
[V:4] c2[dB][cA] & B2x2 | 
[V:5] E,=E,F,F,, | 
[V:1] x4 | 
[V:2] x4 | 
[V:3] x4 | 
[V:4] B2[dB-][=eB] & B2x2 | 
[V:5] B,,[B,B,,][G,G,,][_G,_G,,] | 
[V:1] x2x :|]  
[V:2] x2x :|]  
[V:3] x2x :|]  
[V:4] [fA][AF][BG=E] :|]  
[V:5] [F,4F,,4] :|]  
[V:1] x [I:setbarnb 28]|[2 
[V:2] x | 
[V:3] x | 
[V:4] [cA_E] | 
[V:5]  | 
[V:1] x4 | 
[V:2] x4 | 
[V:3] x4 | 
[V:4] dz[e2B2_G2] | 
[V:5] B,,z[B,2B,,2] | 
[V:1] x4 | 
[V:2] x4 | 
[V:3] x4 | 
[V:4] [dBF]z[e2B2_G2] | 
[V:5] [B,B,,]z[B,2B,,2]- | 
[V:1] x4 | 
[V:2] x4 | 
[V:3] x4 | 
[V:4] [d2B2F2][^c2B2G2E2] | 
[V:5] [B,4B,,4]- | 
[V:1] x4 |]  
[V:2] x4 |]  
[V:3] x4 |]  
[V:4] [d4B4F4] |]  
[V:5] [B,4B,,4] |]  


